remix/Finance/water-flash-line.svg

<svg viewBox="0 0 24 24" fill="currentColor" xmlns="http://www.w3.org/2000/svg"><path d="M12.0049 3.10321L7.05514 8.05295C4.32147 10.7866 4.32147 15.2188 7.05514 17.9524C9.78881 20.6861 14.221 20.6861 16.9546 17.9524C19.6883 15.2188 19.6883 10.7866 16.9546 8.05296L12.0049 3.10321ZM12.0049 0.27478L18.3688 6.63874C21.8836 10.1535 21.8836 15.8519 18.3688 19.3667C14.8541 22.8814 9.15564 22.8814 5.64092 19.3667C2.1262 15.8519 2.1262 10.1535 5.64092 6.63874L12.0049 0.27478ZM13.0049 11.0027H15.5049L11.0049 17.5027V13.0027H8.50488L13.0049 6.5027V11.0027Z"/></svg>

<svg viewBox="0 0 24 24" xmlns="http://www.w3.org/2000/svg"><path fill="none" d="M0 0h24v24H0Z"/><path d="M12 3.1L7.05 8.05v0c-2.74 2.73-2.74 7.16 0 9.89 2.73 2.73 7.16 2.73 9.89-.01 2.73-2.74 2.73-7.17 0-9.9l-4.95-4.95Zm0-2.83l6.36 6.36V6.62c3.51 3.51 3.51 9.21-.01 12.72 -3.52 3.51-9.22 3.51-12.73-.01C2.1 15.81 2.1 10.11 5.61 6.6L11.97.23Zm1 10.728h2.5l-4.5 6.5v-4.5H8.5l4.5-6.5v4.5Z"/></svg>
